X:821
T:En gammal allvarsvals
T:(Sv. L. Sm. 236)
R:Vals
O:Markaryd, Småland
S:efter Nils Gustaf Lavin
S:efter Johan Petter Andreasson
B:Svenska Låtar Småland nr 236
N:'En gammal allvarsvals', säger Lavin.
N:En sextio år gammal fiol- och klarinettspelman, Johan Petter Andreasson från Hamneda socken, spelade valsen för Lavin då denne var åtta år gammal.
Z:Jonas Brunskog
M:3/4
L:1/8
K:D
|:A2 Bc de|f2 {/g}fe f2|g(f e)(d c)B|G2- LG>F G2|
A(B c)(d e)(f|g2) {/a}g(f g)(a|b2) a2 c2|[df]4 z2:|
K:G
|:g2 ((3fgf) e2|d4 B2|c2 A(F A)(F|G2) B2 d2|
g2 ((3fgf) e2|d4 B2|c2 A(F A)(F|[1 G4) z2:|[2G4) zA |]
(:musicend:)

(:music:)
